X:37
T:Nouvelle Hambourgh THO4.037, La
M:2/4
L:1/8
Z:vmp. Peter Dunk 2010/11.from a transcription by Fynn Titford-Mock 2007
B:Thompson's Compleat Collection of 200 Favourite Country Dances Volume IV.
Q:1/4=140
K:D
DFAd|fage|cA d/c/d/e/|d2d2|AGFE|DFAd|fage|d2d2:|
|:ecAd|fdAf|gfed|cB/c/ A2|ecAd|fdAg|fe/d/ ed/c/|d2d2:|
K:F
|:FEDE|FGAd|AGFE|FED^C|FEDE|FGAd|^cdec|d2d2:|
|:fedf|gfeg|fd^cd|e^c A2|FEDE|FGAd|^cdec|e^c d2:|
